X: 131896
T: Melodious Foot of the Glen
S: "The Roche Collection of Traditional Irish Music" [I/73/191]
L: 1/8
M: 4/4
R: reel
K: D
(3ABc |: dcdf edcB | A2 (3FED FAAB | dcdf ecdB | BAFA FE (3FED :|
Beee egfe | defg afdf | e2 ef g2 fe | dBA=c BEED |
Beee egfe | defg afdf | gfge fgfe | dBA=c BEED |]
P: alternate setting % [III/26/86]
AF | D2 FA A2 FA | Adfd edfd | D2 FA A2 FA | BdAF EDEF |
D2 FA A2 FA | Adfd edfd | B2 AF ABde | fafd e2 d2 ||
fa a2 afdf | gefd eB B2 | fa a2 afdf | g2 fg e2 d2 |
fa a2 afdf | gefd eB B2 | B2 AF ABde | fafd edBA ||
